X:107
T:Vals efter Lassa-Nesse och Artur Svensson
C:Ingvar Fohlin
M:3/4
L:1/8
K:G
D DC|B,D DC B,D|B2 G2 GB,|C2 EE ~E2|C2 EE ~E2|\
D2 FD FA|c2 A2 F2|A2 GG GB|D3 D DC|
B,D DC B,D|B2 G2 GB,|C2 EE ~E2|C2 EE ~E2|\
D2 FD FA|c2 A2 F2|A2 GG GB|G3:|
|:G GB|d2 BG GB|d2 B2 B2|B2 A2 B2|c3 F DF|\
AF DF AB|c2 A2 F2|A2 GG GB|d3 G GB|
d2 BG GB|d2 B2 B2|B2 A2 B2|c3 F DF|\
AF DF AB|c2 A2 F2|A2 GG GB|G3:|
